assets/images/icons/src/hourglass-2.svg

<?xml version="1.0" encoding="utf-8"?>
<!-- Generated by IcoMoon.io -->
<!DOCTYPE svg PUBLIC "-//W3C//DTD SVG 1.1//EN" "http://www.w3.org/Graphics/SVG/1.1/DTD/svg11.dtd">
<svg version="1.1" xmlns="http://www.w3.org/2000/svg" xmlns:xlink="http://www.w3.org/1999/xlink" width="12" height="14" viewBox="0 0 12 14">
<path fill="#444444" d="M11 1q0 2.039-0.832 3.605t-2.082 2.395q1.25 0.828 2.082 2.395t0.832 3.605h0.75q0.109 0 0.18 0.070t0.070 0.18v0.5q0 0.109-0.070 0.18t-0.18 0.070h-11.5q-0.109 0-0.18-0.070t-0.070-0.18v-0.5q0-0.109 0.070-0.18t0.18-0.070h0.75q0-2.039 0.832-3.605t2.082-2.395q-1.25-0.828-2.082-2.395t-0.832-3.605h-0.75q-0.109 0-0.18-0.070t-0.070-0.18v-0.5q0-0.109 0.070-0.18t0.18-0.070h11.5q0.109 0 0.18 0.070t0.070 0.18v0.5q0 0.109-0.070 0.18t-0.18 0.070h-0.75zM10 1h-8q0 1.609 0.664 3h6.672q0.664-1.391 0.664-3zM9.555 10.5q-0.422-1.102-1.137-1.887t-1.52-1.113h-1.797q-0.805 0.328-1.52 1.113t-1.137 1.887h7.109z"></path>
</svg>

<svg xmlns="http://www.w3.org/2000/svg" width="12" height="14" viewBox="0 0 12 14"><path fill="#444" d="M11 1q0 2.039-.832 3.605T8.086 7q1.25.828 2.082 2.395T11 13h.75q.109 0 .18.07t.07.18v.5q0 .109-.07.18t-.18.07H.25q-.109 0-.18-.07T0 13.75v-.5q0-.109.07-.18T.25 13H1q0-2.039.832-3.605T3.914 7q-1.25-.828-2.082-2.395T1 1H.25Q.141 1 .07.93T0 .75v-.5Q0 .141.07.07T.25 0h11.5q.109 0 .18.07t.07.18v.5q0 .109-.07.18t-.18.07H11zm-1 0H2q0 1.609.664 3h6.672Q10 2.609 10 1zm-.445 9.5q-.422-1.102-1.137-1.887T6.898 7.5H5.101q-.805.328-1.52 1.113T2.444 10.5h7.109z"/></svg>
